X:1
T:I Believe the Bible
T:I Believe the Bible
T:Edwin Smith Ufford 
T:Edwin Smith Ufford & Wenford G. Schurman, 1909
T:Public Domain Courtesy of the Cyber Hymnal™
T:Public Domain Courtesy of the Cyber Hymnal™
C:Edwin Smith Ufford
Z:Public Domain
Z:Courtesy of the Cyber Hymnal™
%%score ( 1 2 ) ( 3 4 )
L:1/8
Q:1/4=110
M:4/4
K:D
V:1 treble 
V:2 treble 
V:3 bass 
V:4 bass 
V:1
 [DF][DF][DF][DF] [DE] D2 [DF] | [FA][FA] [FA]>[GB] [FA]4 | [DF][DF][DE]D [DF] [FA]3 | %3
w: 1.~I be- lieve the Bi- ble, it|taught me how to pray,|Je- sus heard and an- swered,|
w: 2.~I be- lieve the Bi- ble, it|teach- es me to sing,|Mo- ses’ song of vic- t’ry|
w: 3.~I be- lieve the Bi- ble, of|ho- li- ness it speaks,|Gra- cious gift of Je- sus|
w: 4.~I be- lieve the Bi- ble, it|teach- es me to run|In this roy- al high- way|
w: 5.~I be- lieve the Bi- ble, and|then the world will see|We have been with Je- sus|
 [GB][FA][FA][DF] [CE]4 | [DF][DF][DF][DF] [DE] D3 | [FA][FA] [FA]>[GB] [FA]4 | %6
w: took my sins a- way;|Gave me peace and par- don,|wrote my name a- bove,|
w: o’er the ty- rant king;|Or with Paul and Si- las,|mid- night brings re- lease,|
w: to the one who seeks;|Tells of keep- ing pow- er,|’neath the cleans- ing flood,|
w: till the prize is won;|Shows the crown a- wait- ing,|if I win the race,|
w: more like Him to be;|With His Word a- bid- ing|in our hearts made new,|
 [Fd][Fd][Fd][Fd] [GB][FA][DF]D | [DF]2 [CE]2 D4 ||"^Refrain" [Fd]>[Fd] [Fd][Fd] [GB] [FA]3 | %9
w: Glo- ry hal- le- lu- jah! for His|wond- rous love.||
w: Glo- ry hal- le- lu- jah! for His|per- fect peace.||
w: Glo- ry hal- le- lu- jah! for the|pre- cious blood.||
w: Glo- ry hal- le- lu- jah! for His|sav- ing grace.||
w: That will prove the bless- èd Book is|al- ways true.||
 [GB][FA] [DF]>[EG] [FA]4 | [Fd][Fd][Gd][Gd] [GB] [FA]3 | [GB][FA][FA][DF] [CE]4 | %12
w: |||
w: |||
w: |||
w: |||
w: |||
 [DF][DF][DE]D [DF][FA][FA][FA] | [GB][Gd][Ac][GB] [FA]4 | [Fd]>[Fd] [Gd][Gd] [GB][FA][DF][B,D] | %15
w: |||
w: |||
w: |||
w: |||
w: |||
 [DF]2 [CE]2 D4 |] %16
w: |
w: |
w: |
w: |
w: |
V:2
 x5 D2 x | x8 | x3 D x4 | x8 | x5 D3 | x8 | x7 D | x4 D4 || x8 | x8 | x8 | x8 | x3 D x4 | x8 | x8 | %15
 x4 D4 |] %16
V:3
 [D,A,][D,A,][D,A,][D,A,] [D,G,] [D,F,]2 [D,A,] | [D,D][D,D] [D,D]>[D,D] [D,D]4 | %2
w: ~ ~ ~ ~ ~ ~ ~|~ ~ ~ ~ ~|
 [D,A,][D,A,][D,G,][D,F,] [D,A,] [D,D]3 | [D,D][D,D][D,D][D,A,] [A,,A,]4 | %4
w: ~ ~ ~ ~ ~ ~|~ ~ ~ ~ ~|
 [D,A,][D,A,][D,A,][D,A,] [D,G,] [D,F,]3 | [D,D][D,D] [D,D]>[D,D] [D,D]4 | %6
w: ~ ~ ~ ~ ~ ~|~ ~ ~ ~ ~|
 [D,A,][D,A,][D,A,][D,A,] [D,D][D,D][D,A,][B,,^G,] | [A,,A,]2 (A,G,) [D,F,]4 || %8
w: ~ ~ ~ ~ ~ ~ ~ ~|~ ~ * ~|
 [D,A,]>[D,A,] [D,A,][D,A,] [D,D] [D,D]3 | [D,D][D,D] [D,A,]>[D,A,] [D,D]4 | %10
w: I be- lieve the Bi- ble,|O it is di- vine!|
 [D,A,][D,A,][D,B,][D,B,] [D,D] [D,D]3 | [D,D][D,D][D,D][D,A,] [A,,A,]4 | %12
w: Heav- en’s gold- en sun- light|in its pag- es shine;|
 [D,A,][D,A,][D,G,][D,F,] [D,A,][D,D][D,D][D,D] | [G,D][G,B,][G,D][G,D] [D,D]4 | %14
w: Lights my way to glo- ry, and I’m|sure- ly go- ing thro’;|
 [D,A,]>[D,A,] [D,B,][D,B,] [D,D][D,D][D,A,][B,,^G,] | [A,,A,]2 (A,G,) [D,F,]4 |] %16
w: I be- lieve the Bi- ble, for ’tis|ev- er * true.|
V:4
 x8 | x8 | x8 | x8 | x8 | x8 | x8 | x2 A,,2 x4 || x8 | x8 | x8 | x8 | x8 | x8 | x8 | x2 A,,2 x4 |] %16

